X:1
T:Jewin Street
T:A minor James P. Carrell, 1821
T:Robert Robinson, 1758                 87. 87.
T:Transcribed from Songs of Zion, 1821
%%score [ 1 2 3 4 ]
L:1/8
Q:1/4=120
M:4/4
K:C
V:1 treble nm="Tr." snm="Tr."
V:2 treble nm="C." snm="C."
V:3 treble-8 nm="T." snm="T."
V:4 bass nm="B." snm="B."
V:1
"_1. Teach me some me – lo – dious  son – net,     Sung  by  flaming   tongues above.           Praise the mount, I’m fixed upon  it,   Mount  of  Thy  re – dee – ming   love!" A3 B c2 d2 | %1
 e2 e2 cd e2 | A3 B c2 e2 | A2 G2 A4 | z4 A3 B | A2 G2 c2 g2 | d2 e2 c3 B | c2 d2 e2 e2 | c8 |] %9
V:2
"_2. O!   to  grace,  how  great  a       debt  –  or      Dai –ly  I'm  constrained  to  be!                Let  that grace, now like a     fet – ter,   Bind  my wandering  heart  to    thee." A3 G A2 B2 | %1
 A2 E2 EF G2 | D3 D E2 E2 | E2 G2 A4 | z4 A3 G | E2 E2 E2 E2 | G2 G2 A3 B | A2 G2 E2 E2 | E8 |] %9
V:3
"_3. Prone  to  wander,  Lord,  I         feel      it,     Prone  to  leave  the  God  I  love;            Here's  my  heart , O take and seal  it,    Seal    it      for  thy   courts  a  –  bove!" A3 B A2 G2 | %1
 A2 c2 AG E2 | A3 B A2 G2 | c2 d2 e4 | z4 e3 d | e2 g2 e2 c2 | d2 c2 e3 G | A2 G2 DF G2 | A8 |] %9
V:4
"________________________________________________________________________\nThe melody (\nTenor\n) is the basis for the three-part version in William Walker's \n   Southern Harmony\n, 1835,  called \nRestoration\n. Walker begins his tune at the beginning\n   of Robinson's hymn (Come, thou fount of every blessing), whereas Carrell began \n   in the middle of Robinson's first stanza; Robinson's stanzas have meter 87. 87. D.\nWilliam Walker wrote a fourth part (\nAlto\n) for his arrangement in 1876. \nWilliam Walker's version was re-arranged by T. B. Newton and S. W. Everett for the\n   1911 edition of The Sacred Harp, p. 312; where it has remained to the present time." A,3 G, E,2 D,2 | %1
 C,2 C,D, E,2 E,2 | D,3 F, E,2 D,2 | C,2 B,,2 A,,4 | z4 A,,3 B,, | C,2 C,2 E,2 E,2 | %6
 G,2 G,2 A,3 G, | C,2 D,2 E,2 E,2 | A,,8 |] %9

